X:138
T: Taonan
N: C1634
O: China,Hebei, Fucheng
S: IV, 58]
R: Xiaodiao]
M: 2/4
L: 1/16
K: G
d2geeddB | B8 | d2geeddB | B8 |
B2Bde2ge | B2dBA2G2 | d2dBAGE2 | G8 |
GAdBA4 | d2dBAGE2 | G8

@@@ Tune index: 6693
